X: 432
T: MISS JANE WEDDERBURN
C: R. MACKINTOSH
R: Rell
B: Glen Collection p.43 #2
Z: 2011 John Chambers <jc:trillian.mit.edu>
M: C|
L: 1/8
V: 1 clef=treble middle=B
V: 2 clef=bass middle=d
%%score {1 | 2}
K: Am
%
V: 1
e |\
c<Aa>^g a(ee=g) | B<Gg>^f g(ddB) |c<Aa>^g aeaf | ecdB cAA :|
c |\
AEcA ecae | ^fdgd ecBG | AEcA ecaf | edcB c(AAc) |
AEcA ecae | ^fdgd ecBG | (ABc)A Bcdf | edcB cAA |]
%
V: 2
z |\
a2[e'2c'2] e2[e'2c'2] | g2[d'2b2] d2[d'2b2] |\
a2[e'2c'2] e2d2 | e2[^g2e2] [a2A2][aA] :|
z |\
c2[a2e2] c2[a2e2] | d2[b2g2] [a2^f2][b2g2] |\
c2[a2e2] c2d2 | e2[^g2e2] [a2A2][a2A2] |
c2[a2e2] c2[a2e2] | d2[b2g2] [a2^f2][b2g2] |\
A2[a2e2] f2d2 | e2[^g2e2] [a2A2][aecA] |]
